svgs/sharp-thin/link-horizontal.svg

<svg xmlns="http://www.w3.org/2000/svg" viewBox="0 0 640 512"><!--! Font Awesome Pro 6.6.0 by @fontawesome - https://fontawesome.com License - https://fontawesome.com/license (Commercial License) Copyright 2024 Fonticons, Inc. --><path d="M512 432c70.7 0 128-57.3 128-128s-57.3-128-128-128l-24 0 0 16 24 0c61.9 0 112 50.1 112 112s-50.1 112-112 112l-192 0c-61.9 0-112-50.1-112-112s50.1-112 112-112l56 0 0-16-56 0c-70.7 0-128 57.3-128 128s57.3 128 128 128l192 0zM128 80C57.3 80 0 137.3 0 208s57.3 128 128 128l24 0 0-16-24 0C66.1 320 16 269.9 16 208S66.1 96 128 96l192 0c61.9 0 112 50.1 112 112s-50.1 112-112 112l-56 0 0 16 56 0c70.7 0 128-57.3 128-128s-57.3-128-128-128L128 80z"/></svg>

<svg xmlns="http://www.w3.org/2000/svg" viewBox="0 0 640 512"><!--! Font Awesome Pro 6.5.2 by @fontawesome - https://fontawesome.com License - https://fontawesome.com/license (Commercial License) Copyright 2024 Fonticons, Inc. --><path d="M512 432c70.7 0 128-57.3 128-128s-57.3-128-128-128H488v16h24c61.9 0 112 50.1 112 112s-50.1 112-112 112H320c-61.9 0-112-50.1-112-112s50.1-112 112-112h56V176H320c-70.7 0-128 57.3-128 128s57.3 128 128 128H512zM128 80C57.3 80 0 137.3 0 208s57.3 128 128 128h24V320H128C66.1 320 16 269.9 16 208S66.1 96 128 96H320c61.9 0 112 50.1 112 112s-50.1 112-112 112H264v16h56c70.7 0 128-57.3 128-128s-57.3-128-128-128H128z"/></svg>
